packages/katcn/src/icons/svg/key-solid.svg

<svg width="24" height="24" viewBox="0 0 24 24" fill="none" xmlns="http://www.w3.org/2000/svg">
<path d="M22.3701 8.13282C20.5071 5.61852 18.3153 3.43217 15.7947 1.57377C14.4796 0.699228 12.7262 0.808546 11.6303 2.01104L8.01379 5.72783C6.91788 6.82101 6.6987 8.57009 7.57542 9.77258C7.9042 10.2099 8.23297 10.6471 8.56174 11.0844L1.65754 17.9714C1.21918 18.2993 1 18.8459 1 19.3925V22.0161C1 22.5627 1.43836 23 1.98631 23H4.61648C5.16443 23 5.6028 22.7814 6.04116 22.4534L12.9454 15.5664C13.3837 15.8944 13.8221 16.2223 14.2604 16.5503C15.5755 17.4248 17.2194 17.2062 18.3153 16.113L22.0414 12.3962C23.1373 11.1937 23.3564 9.44463 22.3701 8.13282ZM17.329 8.89804C17.0002 9.22599 16.6714 9.33531 16.2331 9.33531C15.7947 9.33531 15.4659 9.22599 15.1372 8.89804C14.5892 8.35145 14.5892 7.3676 15.1372 6.82101C15.6851 6.27442 16.6714 6.27442 17.2194 6.82101C17.8769 7.25828 17.8769 8.24214 17.329 8.89804Z" fill="black"/>
</svg>

<svg xmlns="http://www.w3.org/2000/svg" fill="none" viewBox="0 0 24 24"><path fill="#000" d="M22.37 8.133a31.1 31.1 0 0 0-6.575-6.56C14.48.7 12.726.81 11.63 2.012L8.014 5.728C6.918 6.82 6.699 8.57 7.575 9.773l.987 1.311-6.904 6.887C1.219 18.3 1 18.846 1 19.392v2.624a.98.98 0 0 0 .986.984h2.63c.548 0 .987-.219 1.425-.547l6.904-6.887 1.315.984c1.316.875 2.96.656 4.055-.437l3.726-3.717c1.096-1.202 1.315-2.951.33-4.263m-5.041.765c-.329.328-.658.437-1.096.437s-.767-.109-1.096-.437c-.548-.547-.548-1.53 0-2.077s1.534-.547 2.082 0c.658.437.658 1.421.11 2.077"/></svg>
